X: 28
T:Allegro 1mo, sexdregasamlingen 1 nr 28
B:Sexdregasamlingen del 1 nr 28
O: Sexdrega, Västergötland
R: Marsch
M: 2/4
Z:2012-07-31 Per Oldberg 
K: D
L: 1/16
FG | A2A2 A2Bc | d4 A4 | Bdcd Adcd | GFGA F2A2 | Bdcd Adcd |
G2G2 F2d2 | c2d2 e2f2 | g4 a4 | f2ed A2Bc | d6 :: de | f2fg f2ed | 
e2a^g a2ec | d2de dcBA | c2fg fedc | B2B2 Bcde | A2A2 ABcd | 
G2G2 FBAG | GFEF D2A2 | Bdcd Adcd | G2G2 F2A2 | Bdcd Adcd | 
G2G2 F2d2 | c2d2 e2f2 | g4 a4 | f2ed e2dc | d6 :|

